img/icon_technical_support_black.svg

<svg width="24" height="22" viewBox="0 0 24 22" fill="none" xmlns="http://www.w3.org/2000/svg">
<path d="M3.75 17.6C4.34674 17.6 4.91904 17.3682 5.34099 16.9556C5.76295 16.5431 6 15.9835 6 15.4V9.53334C6.00012 8.9574 5.76925 8.40439 5.35698 7.99305C4.94471 7.58172 4.38391 7.34486 3.795 7.33334C3.97942 5.72048 4.76514 4.2306 6.00201 3.14837C7.23889 2.06614 8.84021 1.46744 10.5 1.46667H13.5C15.1598 1.46744 16.7611 2.06614 17.998 3.14837C19.2349 4.2306 20.0206 5.72048 20.205 7.33334C19.6161 7.34486 19.0553 7.58172 18.643 7.99305C18.2307 8.40439 17.9999 8.9574 18 9.53334V15.4C17.999 15.9613 18.2174 16.5018 18.6106 16.9108C19.0038 17.3198 19.542 17.5663 20.115 17.6C19.9603 18.0279 19.6739 18.3986 19.2953 18.6612C18.9166 18.9238 18.4642 19.0654 18 19.0667H14.865C14.6881 18.5774 14.3399 18.165 13.8821 17.9024C13.4243 17.6398 12.8863 17.5439 12.3632 17.6317C11.8401 17.7194 11.3655 17.9852 11.0234 18.382C10.6813 18.7788 10.4937 19.281 10.4937 19.8C10.4937 20.319 10.6813 20.8212 11.0234 21.218C11.3655 21.6148 11.8401 21.8806 12.3632 21.9683C12.8863 22.0561 13.4243 21.9602 13.8821 21.6976C14.3399 21.435 14.6881 21.0226 14.865 20.5333H18C18.9124 20.5293 19.792 20.2001 20.474 19.6075C21.156 19.0149 21.5937 18.1995 21.705 17.314C22.3854 17.0339 22.9661 16.5637 23.3744 15.9624C23.7826 15.361 24.0002 14.6551 24 13.9333V11C24.0011 10.2856 23.7887 9.5865 23.389 8.98852C22.9893 8.39054 22.4196 7.91975 21.75 7.634C21.6366 5.57046 20.7177 3.62815 19.1826 2.20771C17.6475 0.787266 15.6135 -0.0029662 13.5 8.36716e-06H10.5C8.38652 -0.0029662 6.35247 0.787266 4.81741 2.20771C3.28235 3.62815 2.36336 5.57046 2.25 7.634C1.58039 7.91975 1.01072 8.39054 0.611003 8.98852C0.211283 9.5865 -0.00108037 10.2856 4.13312e-06 11V13.9333C4.13312e-06 14.9058 0.395092 15.8384 1.09835 16.5261C1.80161 17.2137 2.75544 17.6 3.75 17.6ZM12.75 20.5333C12.6017 20.5333 12.4567 20.4903 12.3333 20.4097C12.21 20.3292 12.1139 20.2146 12.0571 20.0806C12.0003 19.9466 11.9855 19.7992 12.0144 19.6569C12.0433 19.5147 12.1148 19.384 12.2197 19.2815C12.3246 19.1789 12.4582 19.1091 12.6037 19.0808C12.7492 19.0525 12.9 19.067 13.037 19.1225C13.1741 19.178 13.2912 19.272 13.3736 19.3926C13.456 19.5132 13.5 19.655 13.5 19.8C13.5 19.9945 13.421 20.181 13.2803 20.3185C13.1397 20.4561 12.9489 20.5333 12.75 20.5333ZM22.5 11V13.9333C22.5 14.5168 22.2629 15.0764 21.841 15.489C21.419 15.9015 20.8467 16.1333 20.25 16.1333C20.0511 16.1333 19.8603 16.0561 19.7197 15.9185C19.579 15.781 19.5 15.5945 19.5 15.4V9.53334C19.5 9.33884 19.579 9.15232 19.7197 9.01479C19.8603 8.87726 20.0511 8.8 20.25 8.8C20.8467 8.8 21.419 9.03179 21.841 9.44437C22.2629 9.85695 22.5 10.4165 22.5 11ZM1.5 11C1.5 10.4165 1.73706 9.85695 2.15901 9.44437C2.58097 9.03179 3.15327 8.8 3.75 8.8C3.94892 8.8 4.13968 8.87726 4.28033 9.01479C4.42099 9.15232 4.5 9.33884 4.5 9.53334V15.4C4.5 15.5945 4.42099 15.781 4.28033 15.9185C4.13968 16.0561 3.94892 16.1333 3.75 16.1333C3.15327 16.1333 2.58097 15.9015 2.15901 15.489C1.73706 15.0764 1.5 14.5168 1.5 13.9333V11Z" fill="black"/>
</svg>

<svg width="24" height="22" fill="none" xmlns="http://www.w3.org/2000/svg"><path d="M3.75 17.6c.597 0 1.169-.232 1.591-.644.422-.413.659-.973.659-1.556V9.533c0-.576-.23-1.129-.643-1.54a2.275 2.275 0 00-1.562-.66 6.553 6.553 0 012.207-4.185A6.838 6.838 0 0110.5 1.467h3c1.66 0 3.261.6 4.498 1.681a6.552 6.552 0 012.207 4.185 2.275 2.275 0 00-1.562.66A2.175 2.175 0 0018 9.533V15.4a2.174 2.174 0 00.61 1.51c.394.41.932.656 1.505.69a2.206 2.206 0 01-.82 1.061 2.285 2.285 0 01-1.295.406h-3.135a2.212 2.212 0 00-.983-1.165 2.293 2.293 0 00-1.519-.27 2.262 2.262 0 00-1.34.75 2.17 2.17 0 00-.53 1.418c0 .519.188 1.021.53 1.418a2.26 2.26 0 001.34.75 2.293 2.293 0 001.52-.27c.457-.263.805-.675.982-1.165H18a3.799 3.799 0 002.474-.925 3.642 3.642 0 001.231-2.294c.68-.28 1.261-.75 1.67-1.352A3.61 3.61 0 0024 13.933V11a3.608 3.608 0 00-.611-2.011 3.73 3.73 0 00-1.639-1.355 7.992 7.992 0 00-2.567-5.426A8.352 8.352 0 0013.5 0h-3a8.352 8.352 0 00-5.683 2.208A7.992 7.992 0 002.25 7.634 3.73 3.73 0 00.611 8.989 3.608 3.608 0 000 11v2.933c0 .973.395 1.905 1.098 2.593A3.794 3.794 0 003.75 17.6zm9 2.933a.762.762 0 01-.417-.123.737.737 0 01-.276-.33.718.718 0 01.163-.798.755.755 0 01.817-.16c.137.056.254.15.337.27a.722.722 0 01-.094.927.758.758 0 01-.53.214zM22.5 11v2.933c0 .584-.237 1.143-.659 1.556a2.277 2.277 0 01-1.591.644.758.758 0 01-.53-.214.725.725 0 01-.22-.519V9.533c0-.194.079-.38.22-.518a.759.759 0 01.53-.215c.597 0 1.169.232 1.591.644.422.413.659.972.659 1.556zm-21 0c0-.584.237-1.143.659-1.556A2.276 2.276 0 013.75 8.8c.199 0 .39.077.53.215.141.137.22.324.22.518V15.4a.725.725 0 01-.22.518.758.758 0 01-.53.215 2.277 2.277 0 01-1.591-.644 2.176 2.176 0 01-.659-1.556V11z" fill="#000"/></svg>
